X: 4011
T: DONALBANE
R: Strathspey.
%R: strathspey
B: James Kerr "Merry Melodies" v.4 p.04 #11
Z: 2016 John Chambers <jc:trillian.mit.edu>
M: C
L: 1/8
K: A
a |\
e/e/e e>d c>de>c | A<e c<a (f2e)a |\
e/e/e e>d c>de>c | B/B/B c>e (f2e) ::\
g |\
a>ga>f e<c A>g | a>e f<a f2 (ef/g/) |\
a>ga>f a>f e<c | B/B/B c>e (f2e) :|

%%sep 1 1 500
%%sep 1 1 500

